KINDER
CUT[DR HANS HAT HOSEN A]
REG[Europa, Mitteleuropa, Deutschland; Frankreich, Elsass]
KEY[K0298  16  F 2/4]
MEL[  1__2__  3_.21_
    3_  2__-7__  1__0__
    1_1_2_2_  3_.21_
    3_  2__-7__  1__0__
    5_4_2_2_  5_3_1_1_
    5_4_2_2_  5_3_1_1_
    1__2__  3_.21_
    3_  2__-7__  1__0__ //] >>
FCT[Kinder -, Kose -, Scherz - Lied]
